src/assets/icons/mobile.svg

<svg width="16" height="23" viewBox="0 0 16 23" fill="none" xmlns="http://www.w3.org/2000/svg">
<path d="M8.81143 16.3314L8.64 16.1943C8.57629 16.151 8.50711 16.1164 8.43429 16.0914L8.22857 16C8.04323 15.9613 7.85116 15.9692 7.66963 16.023C7.4881 16.0769 7.32279 16.175 7.18857 16.3086C7.08762 16.4197 7.00645 16.5472 6.94857 16.6857C6.86208 16.8939 6.83912 17.1231 6.88258 17.3444C6.92604 17.5656 7.03397 17.7691 7.1928 17.9291C7.35162 18.0892 7.55424 18.1986 7.77515 18.2438C7.99607 18.289 8.2254 18.2677 8.43429 18.1829C8.57085 18.1166 8.69774 18.032 8.81143 17.9314C8.97001 17.7707 9.07743 17.5666 9.12015 17.3449C9.16286 17.1232 9.13895 16.8938 9.05143 16.6857C8.99445 16.5536 8.91302 16.4334 8.81143 16.3314ZM12.5714 0H3.42857C2.51926 0 1.64719 0.361224 1.00421 1.00421C0.361224 1.64719 0 2.51926 0 3.42857V19.4286C0 20.3379 0.361224 21.21 1.00421 21.8529C1.64719 22.4959 2.51926 22.8571 3.42857 22.8571H12.5714C13.4807 22.8571 14.3528 22.4959 14.9958 21.8529C15.6388 21.21 16 20.3379 16 19.4286V3.42857C16 2.51926 15.6388 1.64719 14.9958 1.00421C14.3528 0.361224 13.4807 0 12.5714 0ZM13.7143 19.4286C13.7143 19.7317 13.5939 20.0224 13.3796 20.2367C13.1652 20.451 12.8745 20.5714 12.5714 20.5714H3.42857C3.12547 20.5714 2.83478 20.451 2.62045 20.2367C2.40612 20.0224 2.28571 19.7317 2.28571 19.4286V3.42857C2.28571 3.12547 2.40612 2.83478 2.62045 2.62045C2.83478 2.40612 3.12547 2.28571 3.42857 2.28571H12.5714C12.8745 2.28571 13.1652 2.40612 13.3796 2.62045C13.5939 2.83478 13.7143 3.12547 13.7143 3.42857V19.4286Z" fill="#202124"/>
</svg>

<svg xmlns="http://www.w3.org/2000/svg" width="16" height="23" fill="none"><path fill="#202124" d="m8.811 16.331-.171-.137a.9.9 0 0 0-.206-.103L8.23 16a1.14 1.14 0 0 0-1.04.309 1.3 1.3 0 0 0-.24.377 1.143 1.143 0 0 0 1.485 1.497 1.7 1.7 0 0 0 .377-.252 1.14 1.14 0 0 0 .24-1.245 1.1 1.1 0 0 0-.24-.355M12.571 0H3.43A3.43 3.43 0 0 0 0 3.429v16a3.43 3.43 0 0 0 3.429 3.428h9.142A3.43 3.43 0 0 0 16 19.43v-16A3.43 3.43 0 0 0 12.571 0m1.143 19.429a1.143 1.143 0 0 1-1.143 1.142H3.43a1.143 1.143 0 0 1-1.143-1.142v-16a1.143 1.143 0 0 1 1.143-1.143h9.142a1.143 1.143 0 0 1 1.143 1.143z"/></svg>
